!!!ONB: MCCC : IJH0440_02 : Extracted Monophonic Melody
!!!COM: Haydn, Joseph
!!!OPR: String Quartet in E major
!!!OMV: 2
!!!SCT: Hob.III:59 ; Op.54 No.3
!!!ODT: 1788///
**kern
*thru
*k[f#c#g#]
*A:
*clefG
*M3/4
8..ee
32dd
16cc#
16r
16b
16r
16a
16r
16b
16r
=1
8..cc#
32dd
16ee
4..r
=2
8..aa
32gg#
8ff#
8ee
8dd
8cc#
=3
16cc#
16dd
16.dd#
32ee
8b
4.r
=4
8..dd
32cc#
16b
16r
16b
16r
16cc#
16r
16dd
16r
=5
8.ee
64ff#
64gg#
64aa
64bb
4ccc#
8aa
8ff#
=6
16bb
16b
16aa
16ff#
8ee
16r
16gg#
8aa
16r
16dd#
=7
4ff#
8ee
4.r
=8
4ff#
8ee
4.r
=9
8..dd
32cc#
16b
16a
16g#
16a
16g#
16a
16b
16cc#
=10
12..dd[
96dd]
32ee
32ff#
32ee
8dd
8.r
32g#
32b
32a
32cc
32b
32dd
=11
8.cc
32dd
32cc
8b
16r
16b
16dd
16b
16dd
16b
=12
8.cc
32dd
32cc
16b
16b
16r
16ee
16a
16a
16r
16a
=13
16g#
16g#
16r
32a
64g#
64a
16g#
16g#
16r
32a
64g#
64a
16g#
16g#
16r
32a
64g#
64a
=14
16.g#
32a
16.b
32cc
16.dd
32ee
16ff
16ee
8.bb
16aa
=15
16.gg#
32aa
16.bb
32ccc
6..ddd[
48ddd]
16ccc
16bb
16aa
=16
8gg#
8r
4.ff#
8r
=17
8..ee
32dd
16cc#
16r
16b
16r
16a
16r
16b
16r
=18
8..cc#
32dd
8ee
4.r
=19
8..aa
32gg#
8ff#
8ee
8dd
8cc#
=20
16cc#
16dd
16.dd#
32ee
8b
4.r
=21
8..dd
32cc#
16b
16r
16b
16r
16cc#
16r
16dd
16r
=22
8.ee
64ff#
64gg#
64aa
64bb
8..ccc#
32bb
16.aa
32gg#
32.ff#
64ee
32.dd
64cc#
=23
16b
16b
16dd
16ff#
8a
32r
32a
16a
16ee
16dd
32r
32g#
16g#
=24
4b
8a
4.r
=25
4b
8a
4.r
=26
16r
16aa
16gg#
16aa
16ee
16cc
16cc
32b
32a
32g#
32a
32b
32cc
32dd
32ee
32ff
32ee
=27
16ee
16bb
16aa#
16bb
32gg#
32dd#
32ee
32a#
32b
32f##
32g#
32d#
32e
32g#
32b
32dd#
32ee
32gg#
32bb
32ddd
=28
16ccc
16ccc
16bb
16aa
32gg
32ff
32ee
32ff
32ee
32ff
32ee
32ff
64gg
64ff
64ee
64ff
64gg
64ff
64ee
64ff
64aa
64ff
64ee
64ff
64gg
64ff
64ee
64ff
=29
64gg
64ff
64aa
64gg
64ff
64ee
64dd
64cc#
64dd
64ee
64ff
64gg
64ff
64ee
64dd
64cc
64b
64cc
64dd
64ee
64dd
64cc
64b
64a
64g
64b
64a
64cc
64b
64dd
64cc
64ee
32dd
32ff
32gg
32bb
32ddd
32bb
32gg
32ff[
=30
32ff]
16ee
16dd#
16ee
32ff
32ff#
16gg
32gg#
32aa
16bb
32ccc
32ddd
16eee
16ddd
16ccc
32bb[
=31
32bb]
32aa
32aa
32aa
32gg#
32aa
32aa
32aa
64bb
64aa
64ccc
64bb
64ddd
64ccc
64bb
64aa
64gg
64ff#
64aa
64gg
64bb
64aa
64gg
64ff
64ee
64dd
64ff
64ee
64gg
64ff
64ee
64dd
64cc
64b
64cc
64b
64cc
64b
64cc
64b
=32
32cc
32g
32cc
32ee
32gg
32ccc
32eee
32ggg
2ddd
=33
4ccc
2r
=34
4ccc
2r
=35
2.r
=36
2.r
=37
16r
16bb
16aa#
16bb
16gg#
16ff
16dd
16b
16g#
16f
32e
32d
32c
32B
=38
16A
16ccc
16bb
16ccc
16aa
16dd#
16ee
16b
32cc
32g#
32a
32e
32d
32c
32B
32A
=39
16r
16ccc
16aa
16ff#
16dd#
16cc
16a
16f#
32d#
32f#
16a
16cc
16d#
=40
4d#
16e
16g#
16a
16b
16cc
16cc#
16dd
16dd#
=41
8..ee
32dd
16cc#
32cc#
32ee
16b
16b
16a
16a
16b
16b
=42
8cc#
16.cc#
32dd
8ee
4.r
=43
8..aa
32gg#
16ff#
16ff#
16r
16ee
16r
16dd
16r
16cc#
=44
16cc#
16dd
16.dd#
32ee
64dd#
64ee
64dd#
64ee
64dd#
64ee
64dd#
64ee
64dd#
64ee
64dd#
64ee
64dd#
64ee
64dd#
64ee
8b
8r
=45
8.dd
48ee
48dd
48cc#
16b
16b
16r
16b
16r
16cc#
16r
16dd
=46
8.ee
64ff#
64gg#
64aa
64bb
16ccc#
16ccc#
16ccc#
16ccc#
32bb#
32ccc#
32ccc#
32ccc#
16aa
32gg#
32ff#
=47
32bb
32bb
32bb
32b
32aa
32aa
32aa
32ff#
32.ee
64gg#
16gg#
32.bb
64gg#
16gg#
16bb
16aa
16ff#
16dd#
=48
8dd#
16ff#
16ee
8ee
4.r
=49
8..dd
32cc#
16b
16a
16g#
16a
16g#
16a
16b
16cc#
=50
8dd
32dd
32ee
32ff#
32ee
64dd
64ee
64ff#
64ee
64dd
64ee
64ff#
64ee
64dd
64ee
64ff#
64ee
64dd
64ee
64ff#
64ee
16dd
32g#
32b
32a
32cc
32b
32dd
=51
8.cc
32dd
32b#
16b
16b
16r
16b
16dd
16b
16dd
16b
=52
8.cc
32dd
32b#
16b
16b
16r
16ee
16a
16a
16r
16a
=53
16g#
16g#
16r
32a
64g#
64a
16g#
16g#
16r
32a
64g#
64a
16g#
16g#
16r
32a
64g#
64a
=54
16.g#
32a
16.b
32cc
16.dd
32ee
16ff
16ee
8.bb
16aa
=55
16.gg#
32aa
16.bb
32ccc
6..ddd[
48ddd]
16ccc
16bb
16aa
=56
8gg#
8r
4.ff#
8r
=57
8..ee
32dd
16cc#
32cc#
32ee
16b
16b
16a
16a
16b
16b
=58
8..cc#
32dd
8ee
4.r
=59
32a
32b
32cc#
64dd
64ee
64ff#
64gg#
64aa
64bb
64ccc#
64bb
64aa
64gg#
16ff#
8ff#
16ee
16dd#
16dd
16cc#
16b#
=60
16cc#
16dd
12..dd#[
96dd#]
32ee
32dd#
32ee
32dd#
32ee
32ff#
32ee
8b
16b#
16cc#
=61
16.dd
64cc#
64b
64a
64g#
64f#
64e
64d
64c#
64B
64A
8G#
16b
16b
16cc#
16cc#
16dd
16dd
=62
8.ee
64ff#
64gg#
64aa
64bb
8..ccc#
32bb
16.aa
32gg#
32.ff#
64ee
32.dd
64cc#
=63
16b
16b
16dd
16ff#
8a
32r
32a
16a
16ee
16dd
32r
32g#
16g#
=64
4b
16a
16a
16a
16a
16.a
64b
64cc#
64dd
64ee
64ff#
64gg#
64aa
64bb
64ccc#
64ddd
=65
8..eee
32ddd
32.ccc#
64ddd
32.bb
64ccc#
32.aa
64bb
32.gg#
64aa
48ff#
48gg#
48ff#
48ee
48ff#
48ee
48dd
48ee
48dd
48cc#
48dd
48cc#
=66
16b
16b
16dd
16ff#
8a
32r
32a
16a
16ee
16dd
32r
32g#
16g#
=67
16.b
32cc
32cc#
32dd
32dd#
32ee
8a
4.r
==
*-
